X: 3
T: I Ne'er Shall Wean Her
R: jig
M: 6/8
L: 1/8
K: Amin
|:GF|EGG GED|EGG c2B|BAA AGA|cde egd|
cde g2a|ged c2d|eag ged|cAA A :|
|:cd|egg ged|egg ged|eaa aga|bag a2d|
cde g2a|ged c2d|eag ged|cAA A :|


Tune 803	Setting 13954

